X: 994
T: Green Sleeves
T: Muinlide Glas
R:double jig
S:994 O'Neill's Music of Ireland
B:O'Neill's 994
Z:Transcribed by Robert Thorpe (thorpe@skep.com)
Z:ABCMUS 1.0
M:6/8
K:Am
A/-B/-|c2 c cde|dBG GAB|cBA ABc|BGE E2 A/-B/-|
|c2 c cde|dBG GAB|cBA GE^G|A3 A2:|
e/-^f/-|gag gfe|dBG GBd|aba aba|gee e2 e/-^f/-|
|gag gfe|dBG GAB|cBA GE^G|A3 A2:|


